svg/puzzle_minus.svg

<svg xmlns="http://www.w3.org/2000/svg" viewBox="0 0 24 24"><path d="M13.04 19.61a2.68 2.68 0 0 0-2.54-1.81c-1.5 0-2.7 1.2-2.7 2.7V22H4a2 2 0 0 1-2-2v-3.8h1.5c1.5 0 2.7-1.2 2.7-2.7S5 10.8 3.5 10.8H2V7c0-1.1.9-2 2-2h4V3.5a2.5 2.5 0 0 1 5 0V5h4a2 2 0 0 1 2 2v4h1.5a2.5 2.5 0 0 1 2.5 2.5c0 .32-.06.62-.17.89A6 6 0 0 0 19 13c-3.31 0-6 2.69-6 6 0 .2 0 .41.04.61M15 18v2h8v-2z"/></svg>

<?xml version="1.0" encoding="UTF-8"?><!DOCTYPE svg PUBLIC "-//W3C//DTD SVG 1.1//EN" "http://www.w3.org/Graphics/SVG/1.1/DTD/svg11.dtd"><svg xmlns="http://www.w3.org/2000/svg" xmlns:xlink="http://www.w3.org/1999/xlink" version="1.1" id="mdi-puzzle-minus" width="24" height="24" viewBox="0 0 24 24"><path d="M13.04 19.61C12.67 18.55 11.68 17.8 10.5 17.8C9 17.8 7.8 19 7.8 20.5V22H4C2.9 22 2 21.11 2 20V16.2H3.5C5 16.2 6.2 15 6.2 13.5S5 10.8 3.5 10.8H2V7C2 5.9 2.9 5 4 5H8V3.5C8 2.12 9.12 1 10.5 1S13 2.12 13 3.5V5H17C18.1 5 19 5.89 19 7V11H20.5C21.88 11 23 12.12 23 13.5C23 13.82 22.94 14.12 22.83 14.39C21.79 13.53 20.46 13 19 13C15.69 13 13 15.69 13 19C13 19.2 13 19.41 13.04 19.61M15 18V20H23V18H15Z" /></svg>
